src/main/resources/icons/AllIcons/general/inspectionsMixed.svg

<!-- Copyright 2000-2021 JetBrains s.r.o. Use of this source code is governed by the Apache 2.0 license that can be found in the LICENSE file. -->
<svg width="16" height="16" viewBox="0 0 16 16" fill="none" xmlns="http://www.w3.org/2000/svg">
<path fill-rule="evenodd" clip-rule="evenodd" d="M16 10L11 1L8.14862 6.13256C9.08489 6.35266 9.91969 6.83591 10.5707 7.5H11.8V9.1H11.6263C11.7446 9.38753 11.8367 9.68851 11.9 10H16ZM11.8 6.5H10.2V3.5H11.8V6.5Z" fill="#EDA200"/>
<path fill-rule="evenodd" clip-rule="evenodd" d="M7 15C9.20914 15 11 13.2091 11 11C11 8.79086 9.20914 7 7 7C4.79086 7 3 8.79086 3 11C3 13.2091 4.79086 15 7 15ZM6.19995 8.6H7.79995V11.4H6.19995V8.6ZM7.79995 12.2H6.19995V13.8H7.79995V12.2Z" fill="#DB5860"/>
</svg>

<svg width="16" height="16" viewBox="0 0 16 16" fill="none" xmlns="http://www.w3.org/2000/svg"><rect id="frame" width="16" height="16" fill="none"/><path fill-rule="evenodd" clip-rule="evenodd" d="M16 10l-5-9-2.851 5.133c.936.22 1.77.703 2.422 1.367H11.8v1.6h-.174c.119.288.21.589.274.9H16zm-4.2-3.5h-1.6v-3h1.6v3z" fill="#EDA200"/><path fill-rule="evenodd" clip-rule="evenodd" d="M7 15a4 4 0 1 0 0-8 4 4 0 0 0 0 8zm-.8-6.4h1.6v2.8H6.2V8.6zm1.6 3.6H6.2v1.6h1.6v-1.6z" fill="#DB5860"/></svg>
